packages/gestalt-icons-android/vr-theme/ic_vr_instagram_gestalt.svg

<svg width="24" height="24" viewBox="0 0 24 24" fill="none" xmlns="http://www.w3.org/2000/svg">
<path d="M12.001 1C9.01359 1 8.63867 1.01306 7.46532 1.06646C6.29427 1.12008 5.49493 1.30548 4.7955 1.57751C4.07201 1.85847 3.4583 2.23431 2.84688 2.84596C2.23499 3.45738 1.85916 4.0711 1.57728 4.79436C1.30457 5.49401 1.11894 6.29358 1.06623 7.46418C1.01375 8.63752 1 9.01267 1 12.0001C1 14.9876 1.01329 15.3614 1.06646 16.5347C1.12031 17.7058 1.30571 18.5051 1.57751 19.2045C1.8587 19.928 2.23453 20.5417 2.84619 21.1531C3.45738 21.765 4.0711 22.1418 4.79413 22.4227C5.49401 22.6948 6.29358 22.8802 7.46441 22.9338C8.63775 22.9872 9.01245 23.0002 11.9997 23.0002C14.9873 23.0002 15.3611 22.9872 16.5345 22.9338C17.7055 22.8802 18.5058 22.6948 19.2057 22.4227C19.9289 22.1418 20.5417 21.765 21.1529 21.1531C21.7648 20.5417 22.1406 19.928 22.4225 19.2047C22.6929 18.5051 22.8786 17.7055 22.9336 16.5349C22.9863 15.3616 23 14.9876 23 12.0001C23 9.01267 22.9863 8.63775 22.9336 7.46441C22.8786 6.29335 22.6929 5.49401 22.4225 4.79458C22.1406 4.0711 21.7648 3.45738 21.1529 2.84596C20.541 2.23408 19.9292 1.85824 19.205 1.57751C18.5037 1.30548 17.7039 1.12008 16.5329 1.06646C15.3595 1.01306 14.986 1 11.9976 1H12.001ZM11.0142 2.98231C11.3071 2.98186 11.6339 2.98231 12.001 2.98231C14.9381 2.98231 15.2862 2.99286 16.446 3.04556C17.5185 3.09461 18.1006 3.27382 18.4884 3.42438C19.0017 3.62376 19.3677 3.86209 19.7525 4.2471C20.1375 4.6321 20.3758 4.99877 20.5756 5.51211C20.7262 5.89941 20.9056 6.4815 20.9545 7.55401C21.0072 8.71361 21.0186 9.06194 21.0186 11.9976C21.0186 14.9333 21.0072 15.2816 20.9545 16.4412C20.9054 17.5137 20.7262 18.0958 20.5756 18.4831C20.3763 18.9964 20.1375 19.362 19.7525 19.7467C19.3675 20.1317 19.0019 20.3701 18.4884 20.5695C18.1011 20.7207 17.5185 20.8995 16.446 20.9485C15.2864 21.0012 14.9381 21.0127 12.001 21.0127C9.06378 21.0127 8.71567 21.0012 7.55607 20.9485C6.48356 20.899 5.90147 20.7198 5.51349 20.5692C5.00015 20.3698 4.63348 20.1315 4.24847 19.7465C3.86347 19.3615 3.62513 18.9957 3.4253 18.4822C3.27473 18.0949 3.09529 17.5128 3.04648 16.4403C2.99377 15.2807 2.98323 14.9323 2.98323 11.9949C2.98323 9.05736 2.99377 8.71086 3.04648 7.55126C3.09552 6.47875 3.27473 5.89666 3.4253 5.5089C3.62468 4.99557 3.86347 4.6289 4.24847 4.24389C4.63348 3.85889 5.00015 3.62055 5.51349 3.42071C5.90124 3.26946 6.48356 3.09071 7.55607 3.04144C8.57084 2.99561 8.96409 2.98186 11.0142 2.97956V2.98231ZM17.8728 4.80879C17.1441 4.80879 16.5528 5.39936 16.5528 6.12835C16.5528 6.85711 17.1441 7.44836 17.8728 7.44836C18.6016 7.44836 19.1928 6.85711 19.1928 6.12835C19.1928 5.39959 18.6016 4.80879 17.8728 4.80879ZM12.001 6.3511C8.88136 6.3511 6.35202 8.88044 6.35202 12.0001C6.35202 15.1198 8.88136 17.648 12.001 17.648C15.1207 17.648 17.6491 15.1198 17.6491 12.0001C17.6491 8.88044 15.1207 6.3511 12.001 6.3511ZM12.001 8.33342C14.026 8.33342 15.6677 9.97496 15.6677 12.0001C15.6677 14.0251 14.026 15.6668 12.001 15.6668C9.97587 15.6668 8.33433 14.0251 8.33433 12.0001C8.33433 9.97496 9.97587 8.33342 12.001 8.33342Z" fill="black"/>
</svg>

<svg xmlns="http://www.w3.org/2000/svg" width="24" height="24"><path d="M12 1c-2.99 0-3.36.01-4.53.07a8 8 0 0 0-2.67.5c-.73.29-1.34.66-1.95 1.28a5.4 5.4 0 0 0-1.27 1.94 8 8 0 0 0-.51 2.67A79 79 0 0 0 1 12c0 2.99.01 3.36.07 4.53.05 1.18.24 1.98.5 2.67.29.73.66 1.34 1.28 1.95.6.61 1.22 1 1.94 1.27.7.27 1.5.46 2.67.51C8.64 23 9.01 23 12 23s3.36-.01 4.53-.07a8 8 0 0 0 2.68-.5 5 5 0 0 0 1.94-1.28 5.4 5.4 0 0 0 1.27-1.95c.27-.7.46-1.5.51-2.67C23 15.36 23 15 23 12s-.01-3.36-.07-4.54a8 8 0 0 0-.5-2.67 5.4 5.4 0 0 0-1.28-1.94 5 5 0 0 0-1.95-1.27 8 8 0 0 0-2.67-.51A78 78 0 0 0 12 1m-.99 1.98h1c2.93 0 3.28.01 4.44.07a6 6 0 0 1 2.04.37c.51.2.88.44 1.26.83.39.38.63.75.83 1.26.15.39.33.97.37 2.04.06 1.16.07 1.51.07 4.45 0 2.93-.01 3.28-.07 4.44a6 6 0 0 1-.37 2.04c-.2.52-.44.88-.83 1.27a3.4 3.4 0 0 1-1.26.82c-.39.15-.97.33-2.04.38-1.16.05-1.51.06-4.45.06s-3.28 0-4.44-.06a6 6 0 0 1-2.05-.38 3.4 3.4 0 0 1-1.26-.82 3.4 3.4 0 0 1-.82-1.27 6 6 0 0 1-.38-2.04 77 77 0 0 1-.07-4.45c0-2.93.01-3.28.07-4.44.05-1.07.22-1.65.38-2.04.2-.51.43-.88.82-1.27.38-.38.75-.62 1.26-.82.4-.15.97-.33 2.05-.38C8.57 3 8.96 2.98 11 2.98zm6.86 1.83a1.32 1.32 0 1 0 0 2.64 1.32 1.32 0 0 0 0-2.64M12 6.35a5.65 5.65 0 1 0 0 11.3 5.65 5.65 0 0 0 0-11.3m0 1.98a3.67 3.67 0 1 1 0 7.34 3.67 3.67 0 0 1 0-7.34"/></svg>
